X:20
T:Prussian's Dance, The
M:6/8
L:1/8
B:Thompson's Compleat Collection of 200 Favourite Country Dances, vol. 2 (London, 1765)
Z:Transcribed and edited by Flynn Titford-Mock, 2007
Z:abc's:AK/Fiddler's Companion
K:G
def gfe | d2d dcB | cde dcB | ABG FED | def gfe | d2d def | gfe AB^c | d3 D3 :|
|: dDd cDc | BAG AFD | dDd cDc | BAG AFD | EFG ABc | def gdB | ecA dBG | G3 [G,3G3] :|

